file/general-electric.svg

<svg clip-rule="evenodd" fill-rule="evenodd" stroke-linejoin="round" stroke-miterlimit="1.41421" viewBox="0 0 560 400" xmlns="http://www.w3.org/2000/svg"><g fill-rule="nonzero" transform="matrix(.0612245 0 0 .0612245 126.939 46.9388)"><path d="m2499.8 4950c1353.4 0 2450.2-1096.8 2450.2-2449.8s-1096.8-2450.2-2450.2-2450.2c-1353 0-2449.8 1097.2-2449.8 2450.2s1096.8 2449.8 2449.8 2449.8" fill="#fff"/><path d="m3049.6 1862.1c0-278.6 188.6-548.8 291.5-497.9 117.3 58.8-87.9 321.2-291.5 497.9m-1282.5 101.5c0-224 221-649.6 356-604.6 159.6 53.2-132.2 482.5-356 604.6m-224.1 1602c-101.6 4.6-169.6-60.4-169.6-168.9 0-291.5 404.5-570 710-719.5-54.2 407-191.7 872.7-540.4 888.4m1866.2-949.9c-230.7 0-407 169.7-407 373.2 0 169.7 102 305.4 237.3 305.4 47.9 0 95.3-27.3 95.3-87.9 0-88.7-117-110-108.2-241.9 5.9-87 87.9-145.2 169.3-145.2 162.7 0 238.8 157.7 238.8 320.4-6.6 251.3-191.6 425.8-408.4 425.8-285.2 0-468.4-271.2-468.4-563.1 0-434.6 285.2-604.2 434.6-644.7 1.4 0 390.2 69.1 378.1-102.3-5.6-75.4-117.7-104.4-198.7-107.5-90.1-3.5-181.1 28.9-181.1 28.9-47.2-24-80-70.9-100.3-124.9 278.3-210.6 475.1-414 475.1-644.8 0-122.1-81.6-230.7-237.7-230.7-278.3 0-488.7 352.9-488.7 671.9 0 54.1 0 108.6 14 156-176.6 128.8-307.9 209.1-545.2 351.6 0-29.7 6.2-106.4 26.2-205.6 81.3-88.3 193-220.6 193-322.5 0-47.4-26.9-88.3-81.7-88.3-135.5 0-237.1 203.8-264.3 346.3-61.1 75-183.3 170-285.3 170-81.3 0-108.6-74.7-115.5-102 258-88.3 577-441.2 577-760.2 0-67.7-27.2-217.2-230.7-217.2-305.4 0-563 454.9-563 807.4-108.9 0-149.4-115.2-149.4-203.5 0-88.4 33.9-176.3 33.9-203.6 0-27.2-13.6-61-54.5-61-101.6 0-162.7 135.7-162.7 291.8 7 217.2 149.4 353.3 339.3 366.6 27.2 129.1 142.4 251.3 284.8 251.3 88.4 0 196.9-27.2 271.6-94.9-6.6 47.4-13.2 88.3-20.2 128.8-298.8 156.4-516 264.9-712.8 441.3-155.7 142.7-244 332.6-244 481.7 0 203.9 128.8 393.8 393.4 393.8 312 0 549.8-251 665.3-597.3 54.1-162.7 75.8-399.7 89.7-617.2 311.8-176.7 459.8-278.5 622.8-394.1 20.3 33.9 40.8 61 67.7 81.3-142.4 74.7-481.7 285.2-481.7 780.5 0 352.9 237.3 746.7 705.9 746.7 386.8 0 651.4-319.1 651.4-624.6-.1-278-156.2-535.7-455-535.7m1166.9 583c-1 2.1-4.8 4.9-12.5 2.4-6-2.1-7.3-4.9-7.3-8.8.3-3.8 82-245.4 81.3-522.2-.7-299.2-122.1-482.5-277.8-482.5-95.3 0-163.1 68.1-163.1 170.1 0 183.2 223.8 196.9 223.8 597.2 0 162.7-33.9 318.8-87.9 488.4-251.4 848.2-1052.2 1242-1832.3 1242-359.9 0-615.5-74-691.5-108.1-3.1-1.8-6-7.7-3.5-13.7 1.7-4.5 7-8 10.1-6.6 30.8 11.9 250.3 81 521.9 81 298.5 0 475.1-122.1 475.1-271.6 0-94.9-74.7-169.6-169.6-169.6-183.3 0-197.2 230.7-590.7 230.7-169.6 0-319-33.9-495.3-88.4-841.8-257.8-1242.5-1051.6-1242.2-1838.8.3-383.6 107.9-689.1 109.6-691.9 1.4-2 6.2-4.2 12.1-2 6 2 7.3 6.9 7 8.7-9.7 31.8-81 250.7-81 522.3 0 298.8 122.1 475.1 278.2 475.1 88 0 162.7-67.7 162.7-162.7 0-183.5-224.1-203.8-224.1-597.5 0-169.7 34.2-319.1 88.3-495.4 258-841.6 1052.2-1236 1832.7-1242.1 362.7-2.8 680 105.8 692.2 115.5 2.1 1.8 4.2 6.4 2.1 11.9-2.9 6.6-7.1 7.3-9.1 6.9-3.8-.3-210.2-86.6-522.6-86.6-291.8-.3-475.1 121.9-475.1 278.2 0 88 68.1 162.7 169.6 162.7 183.3 0 196.9-223.8 590.7-223.8 169.2 0 318.7 33.5 495 88 848.6 257.9 1234.7 1058.7 1242 1832.6 4 396.3-107.7 696.1-108.8 698.6m-2075.9-3033.2c-1289.5 0-2334.6 1044.8-2334.6 2334.6 0 1289.5 1045.1 2334.3 2334.6 2334.3 1289.2 0 2334.3-1044.8 2334.3-2334.3 0-1282.8-1045.1-2334.6-2334.3-2334.6m0 4784.5c-1350.6 0-2450.2-1092.6-2450.2-2449.8 0-1351 1099.6-2450.2 2450.2-2450.2 1350.2 0 2449.8 1099.2 2449.8 2450.2 0 1357.2-1099.6 2449.8-2449.8 2449.8" fill="#3b73b9"/></g></svg>

<?xml version="1.0" encoding="UTF-8" standalone="no"?>
<!DOCTYPE svg PUBLIC "-//W3C//DTD SVG 1.1//EN" "http://www.w3.org/Graphics/SVG/1.1/DTD/svg11.dtd">
<svg width="100%" height="100%" viewBox="0 0 560 400" version="1.1" xmlns="http://www.w3.org/2000/svg" xmlns:xlink="http://www.w3.org/1999/xlink" xml:space="preserve" xmlns:serif="http://www.serif.com/" style="fill-rule:evenodd;clip-rule:evenodd;stroke-linejoin:round;stroke-miterlimit:1.41421;">
    <g transform="matrix(0.0612245,0,0,0.0612245,126.939,46.9388)">
        <path id="path14" d="M2499.8,4950C3853.2,4950 4950,3853.2 4950,2500.2C4950,1147.2 3853.2,50 2499.8,50C1146.8,50 50,1147.2 50,2500.2C50,3853.2 1146.8,4950 2499.8,4950" style="fill:white;fill-rule:nonzero;"/>
        <path id="path16" d="M3049.6,1862.1C3049.6,1583.5 3238.2,1313.3 3341.1,1364.2C3458.4,1423 3253.2,1685.4 3049.6,1862.1M1767.1,1963.6C1767.1,1739.6 1988.1,1314 2123.1,1359C2282.7,1412.2 1990.9,1841.5 1767.1,1963.6M1543,3565.6C1441.4,3570.2 1373.4,3505.2 1373.4,3396.7C1373.4,3105.2 1777.9,2826.7 2083.4,2677.2C2029.2,3084.2 1891.7,3549.9 1543,3565.6M3409.2,2615.7C3178.5,2615.7 3002.2,2785.4 3002.2,2988.9C3002.2,3158.6 3104.2,3294.3 3239.5,3294.3C3287.4,3294.3 3334.8,3267 3334.8,3206.4C3334.8,3117.7 3217.8,3096.4 3226.6,2964.5C3232.5,2877.5 3314.5,2819.3 3395.9,2819.3C3558.6,2819.3 3634.7,2977 3634.7,3139.7C3628.1,3391 3443.1,3565.5 3226.3,3565.5C2941.1,3565.5 2757.9,3294.3 2757.9,3002.4C2757.9,2567.8 3043.1,2398.2 3192.5,2357.7C3193.9,2357.7 3582.7,2426.8 3570.6,2255.4C3565,2180 3452.9,2151 3371.9,2147.9C3281.8,2144.4 3190.8,2176.8 3190.8,2176.8C3143.6,2152.8 3110.8,2105.9 3090.5,2051.9C3368.8,1841.3 3565.6,1637.9 3565.6,1407.1C3565.6,1285 3484,1176.4 3327.9,1176.4C3049.6,1176.4 2839.2,1529.3 2839.2,1848.3C2839.2,1902.4 2839.2,1956.9 2853.2,2004.3C2676.6,2133.1 2545.3,2213.4 2308,2355.9C2308,2326.2 2314.2,2249.5 2334.2,2150.3C2415.5,2062 2527.2,1929.7 2527.2,1827.8C2527.2,1780.4 2500.3,1739.5 2445.5,1739.5C2310,1739.5 2208.4,1943.3 2181.2,2085.8C2120.1,2160.8 1997.9,2255.8 1895.9,2255.8C1814.6,2255.8 1787.3,2181.1 1780.4,2153.8C2038.4,2065.5 2357.4,1712.6 2357.4,1393.6C2357.4,1325.9 2330.2,1176.4 2126.7,1176.4C1821.3,1176.4 1563.7,1631.3 1563.7,1983.8C1454.8,1983.8 1414.3,1868.6 1414.3,1780.3C1414.3,1691.9 1448.2,1604 1448.2,1576.7C1448.2,1549.5 1434.6,1515.7 1393.7,1515.7C1292.1,1515.7 1231,1651.4 1231,1807.5C1238,2024.7 1380.4,2160.8 1570.3,2174.1C1597.5,2303.2 1712.7,2425.4 1855.1,2425.4C1943.5,2425.4 2052,2398.2 2126.7,2330.5C2120.1,2377.9 2113.5,2418.8 2106.5,2459.3C1807.7,2615.7 1590.5,2724.2 1393.7,2900.6C1238,3043.3 1149.7,3233.2 1149.7,3382.3C1149.7,3586.2 1278.5,3776.1 1543.1,3776.1C1855.1,3776.1 2092.9,3525.1 2208.4,3178.8C2262.5,3016.1 2284.2,2779.1 2298.1,2561.6C2609.9,2384.9 2757.9,2283.1 2920.9,2167.5C2941.2,2201.4 2961.7,2228.5 2988.6,2248.8C2846.2,2323.5 2506.9,2534 2506.9,3029.3C2506.9,3382.2 2744.2,3776 3212.8,3776C3599.6,3776 3864.2,3456.9 3864.2,3151.4C3864.1,2873.4 3708,2615.7 3409.2,2615.7M4576.1,3198.7C4575.1,3200.8 4571.3,3203.6 4563.6,3201.1C4557.6,3199 4556.3,3196.2 4556.3,3192.3C4556.6,3188.5 4638.3,2946.9 4637.6,2670.1C4636.9,2370.9 4515.5,2187.6 4359.8,2187.6C4264.5,2187.6 4196.7,2255.7 4196.7,2357.7C4196.7,2540.9 4420.5,2554.6 4420.5,2954.9C4420.5,3117.6 4386.6,3273.7 4332.6,3443.3C4081.2,4291.5 3280.4,4685.3 2500.3,4685.3C2140.4,4685.3 1884.8,4611.3 1808.8,4577.2C1805.7,4575.4 1802.8,4569.5 1805.3,4563.5C1807,4559 1812.3,4555.5 1815.4,4556.9C1846.2,4568.8 2065.7,4637.9 2337.3,4637.9C2635.8,4637.9 2812.4,4515.8 2812.4,4366.3C2812.4,4271.4 2737.7,4196.7 2642.8,4196.7C2459.5,4196.7 2445.6,4427.4 2052.1,4427.4C1882.5,4427.4 1733.1,4393.5 1556.8,4339C715,4081.2 314.3,3287.4 314.6,2500.2C314.9,2116.6 422.5,1811.1 424.2,1808.3C425.6,1806.3 430.4,1804.1 436.3,1806.3C442.3,1808.3 443.6,1813.2 443.3,1815C433.6,1846.8 362.3,2065.7 362.3,2337.3C362.3,2636.1 484.4,2812.4 640.5,2812.4C728.5,2812.4 803.2,2744.7 803.2,2649.7C803.2,2466.2 579.1,2445.9 579.1,2052.2C579.1,1882.5 613.3,1733.1 667.4,1556.8C925.4,715.2 1719.6,320.8 2500.1,314.7C2862.8,311.9 3180.1,420.5 3192.3,430.2C3194.4,432 3196.5,436.6 3194.4,442.1C3191.5,448.7 3187.3,449.4 3185.3,449C3181.5,448.7 2975.1,362.4 2662.7,362.4C2370.9,362.1 2187.6,484.3 2187.6,640.6C2187.6,728.6 2255.7,803.3 2357.2,803.3C2540.5,803.3 2554.1,579.5 2947.9,579.5C3117.1,579.5 3266.6,613 3442.9,667.5C4291.5,925.4 4677.6,1726.2 4684.9,2500.1C4688.9,2896.4 4577.2,3196.2 4576.1,3198.7M2500.2,165.5C1210.7,165.5 165.6,1210.3 165.6,2500.1C165.6,3789.6 1210.7,4834.4 2500.2,4834.4C3789.4,4834.4 4834.5,3789.6 4834.5,2500.1C4834.5,1217.3 3789.4,165.5 2500.2,165.5M2500.2,4950C1149.6,4950 50,3857.4 50,2500.2C50,1149.2 1149.6,50 2500.2,50C3850.4,50 4950,1149.2 4950,2500.2C4950,3857.4 3850.4,4950 2500.2,4950" style="fill:rgb(59,115,185);fill-rule:nonzero;"/>
    </g>
</svg>
